Newaita-dark/apps/48/system-lock.svg

<svg height="48pt" viewBox="0 0 48 48" width="48pt" xmlns="http://www.w3.org/2000/svg" xmlns:xlink="http://www.w3.org/1999/xlink"><linearGradient id="a"><stop offset="0" stop-opacity=".313726"/><stop offset=".222222" stop-opacity=".27451"/><stop offset="1" stop-opacity="0"/></linearGradient><radialGradient id="b" cx="450.908936" cy="189.579361" gradientTransform="matrix(.00000026 -.117199 -.210958 -.00000015 66.784728 95.392994)" gradientUnits="userSpaceOnUse" r="21.166656" xlink:href="#a"/><radialGradient id="c" cx="450.908936" cy="189.579361" gradientTransform="matrix(-.00000026 .117199 .210958 .00000015 -19.155178 -11.291223)" gradientUnits="userSpaceOnUse" r="21.166656" xlink:href="#a"/><radialGradient id="d" cx="450.908936" cy="189.579361" gradientTransform="matrix(-.00000026 -.117199 .210958 -.00000015 -19.155178 95.392994)" gradientUnits="userSpaceOnUse" r="21.166656" xlink:href="#a"/><radialGradient id="e" cx="450.908936" cy="189.579361" gradientTransform="matrix(.00000026 .117199 -.210958 .00000015 66.784725 -11.291224)" gradientUnits="userSpaceOnUse" r="21.166656" xlink:href="#a"/><linearGradient id="f" gradientTransform="matrix(.0200401 0 0 .093759 18.698079 20.158175)" gradientUnits="userSpaceOnUse" x1="255.323059" x2="255.323044" y1="233.5" y2="254.666656"><stop offset="0" stop-opacity=".27451"/><stop offset="1" stop-opacity="0"/></linearGradient><linearGradient id="g" gradientUnits="userSpaceOnUse" x1="254" x2="254" y1="-168.666672" y2="233.5"><stop offset="0" stop-color="#78909c"/><stop offset="1" stop-color="#607d8b"/></linearGradient><linearGradient id="h" gradientUnits="userSpaceOnUse" x1="23.814816" x2="23.814816" y1="33.12042780616" y2="13.27474780616"><stop offset="0" stop-color="#bdbdbd"/><stop offset="1" stop-color="#e0e0e0"/></linearGradient><path d="m27.289062 42.050781h3.96875v-1.984375h-3.96875zm0 0" fill="url(#b)"/><path d="m20.339844 42.050781h-3.96875v1.984375h3.96875zm0 0" fill="url(#c)"/><path d="m20.339844 42.050781h-3.96875v-1.984375h3.96875zm0 0" fill="url(#d)"/><path d="m27.289062 42.050781h3.96875v1.984375h-3.96875zm0 0" fill="url(#e)"/><path d="m20.339844 41.554688h6.949218v2.480468h-6.949218zm0 0" fill="url(#f)"/><path d="m254.017409-168.671091c111.031064 0 201.064133 90.033069 201.064133 201.105795 0 111.031064-90.033069 201.064133-201.064133 201.064133-111.072726 0-201.105795-90.033069-201.105795-201.064133 0-111.072726 90.033069-201.105795 201.105795-201.105795zm0 0" fill="url(#g)" stroke="#333" stroke-linecap="round" stroke-width="3" transform="matrix(.093759 0 0 .093759 0 20.158175)"/><path d="m23.816406 42.050781c-10.445312 0-18.855468-8.410156-18.855468-18.851562 0-.0625 0-.125 0-.1875.101562 10.359375 8.472656 18.667969 18.855468 18.667969 10.382813 0 18.753906-8.308594 18.851563-18.667969v.1875c0 10.441406-8.410157 18.851562-18.851563 18.851562zm0 0" fill-opacity=".196078"/><path d="m23.816406 4.34375c-10.445312 0-18.855468 8.410156-18.855468 18.855469v.183593c.101562-10.359374 8.472656-18.667968 18.855468-18.667968 10.382813 0 18.753906 8.308594 18.851563 18.667968 0-.0625 0-.125 0-.183593 0-10.445313-8.410157-18.855469-18.851563-18.855469zm0 0" fill="#fff" fill-opacity=".392157"/><path d="m23.816406 4.203125c-10.523437 0-18.996094 8.472656-18.996094 18.996094 0 10.519531 8.472657 18.992187 18.996094 18.992187 10.519532 0 18.992188-8.472656 18.992188-18.992187 0-10.523438-8.472656-18.996094-18.992188-18.996094zm0 .28125c10.367188 0 18.710938 8.34375 18.710938 18.714844 0 10.367187-8.34375 18.710937-18.710938 18.710937-10.371094 0-18.714844-8.34375-18.714844-18.710937 0-10.371094 8.34375-18.714844 18.714844-18.714844zm0 0" fill="#212121"/><path d="m23.589844 13.273438c-2.625 0-4.738282 1.773437-4.738282 3.96875v6.949218c-1.097656 0-1.984374.882813-1.984374 1.984375v4.960938c0 1.097656.886718 1.984375 1.984374 1.984375h9.925782c1.097656 0 1.984375-.886719 1.984375-1.984375v-4.960938c0-1.101562-.886719-1.984375-1.984375-1.984375v-6.949218c0-2.195313-2.113282-3.96875-4.738282-3.96875zm-.765625 2.976562h1.984375c.546875 0 .992187.445312.992187.992188v6.949218h-3.96875v-6.949218c0-.546876.441407-.992188.992188-.992188zm0 0" fill="url(#h)"/><path d="m23.589844 13.273438c-2.625 0-4.738282 1.769531-4.738282 3.96875v.746093c0-2.199219 2.113282-3.96875 4.738282-3.96875h.449218c2.625 0 4.738282 1.769531 4.738282 3.96875v-.746093c0-2.199219-2.113282-3.96875-4.738282-3.96875zm-4.738282 10.917968c-1.097656 0-1.984374.882813-1.984374 1.984375v.742188c0-1.097657.886718-1.984375 1.984374-1.984375zm2.980469 0v.742188h3.96875v-.742188zm6.945313 0v.742188c1.097656 0 1.984375.886718 1.984375 1.984375v-.742188c0-1.101562-.886719-1.984375-1.984375-1.984375zm0 0" fill="#fff"/><path d="m22.824219 16.25c-.550781 0-.992188.445312-.992188.992188v.746093c0-.550781.441407-.992187.992188-.992187h1.984375c.546875 0 .992187.441406.992187.992187v-.746093c0-.546876-.445312-.992188-.992187-.992188zm-5.957031 14.886719v.742187c0 1.101563.886718 1.984375 1.984374 1.984375h9.925782c1.097656 0 1.984375-.882812 1.984375-1.984375v-.742187c0 1.097656-.886719 1.984375-1.984375 1.984375h-9.925782c-1.097656 0-1.984374-.886719-1.984374-1.984375zm0 0" fill-opacity=".235294"/><path d="m23.589844 13.273438c-2.625 0-4.738282 1.769531-4.738282 3.96875v.746093c0-2.199219 2.113282-3.96875 4.738282-3.96875h.449218c2.625 0 4.738282 1.769531 4.738282 3.96875v-.746093c0-2.199219-2.113282-3.96875-4.738282-3.96875zm-4.738282 10.917968c-1.097656 0-1.984374.882813-1.984374 1.984375v.742188c0-1.097657.886718-1.984375 1.984374-1.984375zm2.980469 0v.742188h3.96875v-.742188zm6.945313 0v.742188c1.097656 0 1.984375.886718 1.984375 1.984375v-.742188c0-1.101562-.886719-1.984375-1.984375-1.984375zm0 0" fill="#fff"/><path d="m23.589844 13.132812c-2.6875 0-4.878906 1.820313-4.878906 4.109376v6.820312c-1.105469.074219-1.984376.984375-1.984376 2.113281v4.960938c0 1.175781.953126 2.125 2.125 2.125h9.925782c1.171875 0 2.125-.949219 2.125-2.125v-4.960938c0-1.128906-.878906-2.039062-1.984375-2.113281v-6.820312c0-2.289063-2.191407-4.109376-4.878907-4.109376zm0 .28125h.449218c2.5625 0 4.597657 1.722657 4.597657 3.828126v6.949218c0 .074219.0625.140625.140625.140625 1.023437 0 1.84375.816407 1.84375 1.84375v4.960938c0 1.023437-.820313 1.84375-1.84375 1.84375h-9.925782c-1.023437 0-1.84375-.820313-1.84375-1.84375v-4.960938c0-1.027343.820313-1.84375 1.84375-1.84375.078126 0 .140626-.066406.140626-.140625v-6.949218c0-2.105469 2.039062-3.828126 4.597656-3.828126zm-.765625 2.695313c-.628907 0-1.132813.507813-1.132813 1.132813v6.949218c0 .074219.0625.140625.140625.140625h3.96875c.074219 0 .140625-.066406.140625-.140625v-6.949218c0-.625-.507812-1.132813-1.132812-1.132813zm0 .28125h1.984375c.472656 0 .851562.378906.851562.851563v6.808593h-3.6875v-6.808593c0-.472657.375-.851563.851563-.851563zm0 0" fill="#212121"/></svg>

<?xml version="1.0" encoding="UTF-8"?>
<svg xmlns="http://www.w3.org/2000/svg" xmlns:xlink="http://www.w3.org/1999/xlink" width="48pt" height="48pt" viewBox="0 0 48 48" version="1.1">
<defs>
<radialGradient id="radial0" gradientUnits="userSpaceOnUse" cx="450.908936" cy="189.579361" fx="450.908936" fy="189.579361" r="21.166656" gradientTransform="matrix(0.000000261256,-0.117199,-0.210958,-0.000000152308,66.784728,95.392994)">
<stop offset="0" style="stop-color:rgb(0%,0%,0%);stop-opacity:0.313726;"/>
<stop offset="0.222222" style="stop-color:rgb(0%,0%,0%);stop-opacity:0.27451;"/>
<stop offset="1" style="stop-color:rgb(0%,0%,0%);stop-opacity:0;"/>
</radialGradient>
<radialGradient id="radial1" gradientUnits="userSpaceOnUse" cx="450.908936" cy="189.579361" fx="450.908936" fy="189.579361" r="21.166656" gradientTransform="matrix(-0.000000261256,0.117199,0.210958,0.000000152308,-19.155178,-11.291223)">
<stop offset="0" style="stop-color:rgb(0%,0%,0%);stop-opacity:0.313726;"/>
<stop offset="0.222222" style="stop-color:rgb(0%,0%,0%);stop-opacity:0.27451;"/>
<stop offset="1" style="stop-color:rgb(0%,0%,0%);stop-opacity:0;"/>
</radialGradient>
<radialGradient id="radial2" gradientUnits="userSpaceOnUse" cx="450.908936" cy="189.579361" fx="450.908936" fy="189.579361" r="21.166656" gradientTransform="matrix(-0.000000261256,-0.117199,0.210958,-0.000000152308,-19.155178,95.392994)">
<stop offset="0" style="stop-color:rgb(0%,0%,0%);stop-opacity:0.313726;"/>
<stop offset="0.222222" style="stop-color:rgb(0%,0%,0%);stop-opacity:0.27451;"/>
<stop offset="1" style="stop-color:rgb(0%,0%,0%);stop-opacity:0;"/>
</radialGradient>
<radialGradient id="radial3" gradientUnits="userSpaceOnUse" cx="450.908936" cy="189.579361" fx="450.908936" fy="189.579361" r="21.166656" gradientTransform="matrix(0.000000261256,0.117199,-0.210958,0.000000152308,66.784725,-11.291224)">
<stop offset="0" style="stop-color:rgb(0%,0%,0%);stop-opacity:0.313726;"/>
<stop offset="0.222222" style="stop-color:rgb(0%,0%,0%);stop-opacity:0.27451;"/>
<stop offset="1" style="stop-color:rgb(0%,0%,0%);stop-opacity:0;"/>
</radialGradient>
<linearGradient id="linear0" gradientUnits="userSpaceOnUse" x1="255.323059" y1="233.5" x2="255.323044" y2="254.666656" gradientTransform="matrix(0.0200401,0,0,0.093759,18.698079,20.158175)">
<stop offset="0" style="stop-color:rgb(0%,0%,0%);stop-opacity:0.27451;"/>
<stop offset="1" style="stop-color:rgb(0%,0%,0%);stop-opacity:0;"/>
</linearGradient>
<linearGradient id="linear1" gradientUnits="userSpaceOnUse" x1="254" y1="-168.666672" x2="254" y2="233.5" gradientTransform="matrix(1,0,0,1,0,0)">
<stop offset="0" style="stop-color:rgb(47.058824%,56.470591%,61.176473%);stop-opacity:1;"/>
<stop offset="1" style="stop-color:rgb(37.64706%,49.019608%,54.509807%);stop-opacity:1;"/>
</linearGradient>
<linearGradient id="linear2" gradientUnits="userSpaceOnUse" x1="960" y1="1215.118164" x2="960" y2="415.118164" gradientTransform="matrix(0.0248071,0,0,0.0248071,0.00000031253,2.97687)">
<stop offset="0" style="stop-color:rgb(74.117649%,74.117649%,74.117649%);stop-opacity:1;"/>
<stop offset="1" style="stop-color:rgb(87.843138%,87.843138%,87.843138%);stop-opacity:1;"/>
</linearGradient>
</defs>
<g id="surface1">
<path style=" stroke:none;fill-rule:nonzero;fill:url(#radial0);" d="M 27.289062 42.050781 L 31.257812 42.050781 L 31.257812 40.066406 L 27.289062 40.066406 Z M 27.289062 42.050781 "/>
<path style=" stroke:none;fill-rule:nonzero;fill:url(#radial1);" d="M 20.339844 42.050781 L 16.371094 42.050781 L 16.371094 44.035156 L 20.339844 44.035156 Z M 20.339844 42.050781 "/>
<path style=" stroke:none;fill-rule:nonzero;fill:url(#radial2);" d="M 20.339844 42.050781 L 16.371094 42.050781 L 16.371094 40.066406 L 20.339844 40.066406 Z M 20.339844 42.050781 "/>
<path style=" stroke:none;fill-rule:nonzero;fill:url(#radial3);" d="M 27.289062 42.050781 L 31.257812 42.050781 L 31.257812 44.035156 L 27.289062 44.035156 Z M 27.289062 42.050781 "/>
<path style=" stroke:none;fill-rule:nonzero;fill:url(#linear0);" d="M 20.339844 41.554688 L 27.289062 41.554688 L 27.289062 44.035156 L 20.339844 44.035156 Z M 20.339844 41.554688 "/>
<path style="fill-rule:nonzero;fill:url(#linear1);stroke-width:3;stroke-linecap:round;stroke-linejoin:miter;stroke:rgb(20%,20%,20%);stroke-opacity:1;stroke-miterlimit:4;" d="M 254.017409 -168.671091 C 365.048473 -168.671091 455.081542 -78.638022 455.081542 32.434704 C 455.081542 143.465768 365.048473 233.498837 254.017409 233.498837 C 142.944683 233.498837 52.911614 143.465768 52.911614 32.434704 C 52.911614 -78.638022 142.944683 -168.671091 254.017409 -168.671091 Z M 254.017409 -168.671091 " transform="matrix(0.093759,0,0,0.093759,0,20.158175)"/>
<path style=" stroke:none;fill-rule:nonzero;fill:rgb(0%,0%,0%);fill-opacity:0.196078;" d="M 23.816406 42.050781 C 13.371094 42.050781 4.960938 33.640625 4.960938 23.199219 C 4.960938 23.136719 4.960938 23.074219 4.960938 23.011719 C 5.0625 33.371094 13.433594 41.679688 23.816406 41.679688 C 34.199219 41.679688 42.570312 33.371094 42.667969 23.011719 C 42.667969 23.074219 42.667969 23.136719 42.667969 23.199219 C 42.667969 33.640625 34.257812 42.050781 23.816406 42.050781 Z M 23.816406 42.050781 "/>
<path style=" stroke:none;fill-rule:nonzero;fill:rgb(100%,100%,100%);fill-opacity:0.392157;" d="M 23.816406 4.34375 C 13.371094 4.34375 4.960938 12.753906 4.960938 23.199219 C 4.960938 23.257812 4.960938 23.320312 4.960938 23.382812 C 5.0625 13.023438 13.433594 4.714844 23.816406 4.714844 C 34.199219 4.714844 42.570312 13.023438 42.667969 23.382812 C 42.667969 23.320312 42.667969 23.257812 42.667969 23.199219 C 42.667969 12.753906 34.257812 4.34375 23.816406 4.34375 Z M 23.816406 4.34375 "/>
<path style=" stroke:none;fill-rule:nonzero;fill:rgb(12.941177%,12.941177%,12.941177%);fill-opacity:1;" d="M 23.816406 4.203125 C 13.292969 4.203125 4.820312 12.675781 4.820312 23.199219 C 4.820312 33.71875 13.292969 42.191406 23.816406 42.191406 C 34.335938 42.191406 42.808594 33.71875 42.808594 23.199219 C 42.808594 12.675781 34.335938 4.203125 23.816406 4.203125 Z M 23.816406 4.484375 C 34.183594 4.484375 42.527344 12.828125 42.527344 23.199219 C 42.527344 33.566406 34.183594 41.910156 23.816406 41.910156 C 13.445312 41.910156 5.101562 33.566406 5.101562 23.199219 C 5.101562 12.828125 13.445312 4.484375 23.816406 4.484375 Z M 23.816406 4.484375 "/>
<path style=" stroke:none;fill-rule:nonzero;fill:url(#linear2);" d="M 23.589844 13.273438 C 20.964844 13.273438 18.851562 15.046875 18.851562 17.242188 L 18.851562 24.191406 C 17.753906 24.191406 16.867188 25.074219 16.867188 26.175781 L 16.867188 31.136719 C 16.867188 32.234375 17.753906 33.121094 18.851562 33.121094 L 28.777344 33.121094 C 29.875 33.121094 30.761719 32.234375 30.761719 31.136719 L 30.761719 26.175781 C 30.761719 25.074219 29.875 24.191406 28.777344 24.191406 L 28.777344 17.242188 C 28.777344 15.046875 26.664062 13.273438 24.039062 13.273438 Z M 22.824219 16.25 L 24.808594 16.25 C 25.355469 16.25 25.800781 16.695312 25.800781 17.242188 L 25.800781 24.191406 L 21.832031 24.191406 L 21.832031 17.242188 C 21.832031 16.695312 22.273438 16.25 22.824219 16.25 Z M 22.824219 16.25 "/>
<path style=" stroke:none;fill-rule:nonzero;fill:rgb(100%,100%,100%);fill-opacity:1;" d="M 23.589844 13.273438 C 20.964844 13.273438 18.851562 15.042969 18.851562 17.242188 L 18.851562 17.988281 C 18.851562 15.789062 20.964844 14.019531 23.589844 14.019531 L 24.039062 14.019531 C 26.664062 14.019531 28.777344 15.789062 28.777344 17.988281 L 28.777344 17.242188 C 28.777344 15.042969 26.664062 13.273438 24.039062 13.273438 Z M 18.851562 24.191406 C 17.753906 24.191406 16.867188 25.074219 16.867188 26.175781 L 16.867188 26.917969 C 16.867188 25.820312 17.753906 24.933594 18.851562 24.933594 Z M 21.832031 24.191406 L 21.832031 24.933594 L 25.800781 24.933594 L 25.800781 24.191406 Z M 28.777344 24.191406 L 28.777344 24.933594 C 29.875 24.933594 30.761719 25.820312 30.761719 26.917969 L 30.761719 26.175781 C 30.761719 25.074219 29.875 24.191406 28.777344 24.191406 Z M 28.777344 24.191406 "/>
<path style=" stroke:none;fill-rule:nonzero;fill:rgb(0%,0%,0%);fill-opacity:0.235294;" d="M 22.824219 16.25 C 22.273438 16.25 21.832031 16.695312 21.832031 17.242188 L 21.832031 17.988281 C 21.832031 17.4375 22.273438 16.996094 22.824219 16.996094 L 24.808594 16.996094 C 25.355469 16.996094 25.800781 17.4375 25.800781 17.988281 L 25.800781 17.242188 C 25.800781 16.695312 25.355469 16.25 24.808594 16.25 Z M 16.867188 31.136719 L 16.867188 31.878906 C 16.867188 32.980469 17.753906 33.863281 18.851562 33.863281 L 28.777344 33.863281 C 29.875 33.863281 30.761719 32.980469 30.761719 31.878906 L 30.761719 31.136719 C 30.761719 32.234375 29.875 33.121094 28.777344 33.121094 L 18.851562 33.121094 C 17.753906 33.121094 16.867188 32.234375 16.867188 31.136719 Z M 16.867188 31.136719 "/>
<path style=" stroke:none;fill-rule:nonzero;fill:rgb(100%,100%,100%);fill-opacity:1;" d="M 23.589844 13.273438 C 20.964844 13.273438 18.851562 15.042969 18.851562 17.242188 L 18.851562 17.988281 C 18.851562 15.789062 20.964844 14.019531 23.589844 14.019531 L 24.039062 14.019531 C 26.664062 14.019531 28.777344 15.789062 28.777344 17.988281 L 28.777344 17.242188 C 28.777344 15.042969 26.664062 13.273438 24.039062 13.273438 Z M 18.851562 24.191406 C 17.753906 24.191406 16.867188 25.074219 16.867188 26.175781 L 16.867188 26.917969 C 16.867188 25.820312 17.753906 24.933594 18.851562 24.933594 Z M 21.832031 24.191406 L 21.832031 24.933594 L 25.800781 24.933594 L 25.800781 24.191406 Z M 28.777344 24.191406 L 28.777344 24.933594 C 29.875 24.933594 30.761719 25.820312 30.761719 26.917969 L 30.761719 26.175781 C 30.761719 25.074219 29.875 24.191406 28.777344 24.191406 Z M 28.777344 24.191406 "/>
<path style=" stroke:none;fill-rule:nonzero;fill:rgb(12.941177%,12.941177%,12.941177%);fill-opacity:1;" d="M 23.589844 13.132812 C 20.902344 13.132812 18.710938 14.953125 18.710938 17.242188 L 18.710938 24.0625 C 17.605469 24.136719 16.726562 25.046875 16.726562 26.175781 L 16.726562 31.136719 C 16.726562 32.3125 17.679688 33.261719 18.851562 33.261719 L 28.777344 33.261719 C 29.949219 33.261719 30.902344 32.3125 30.902344 31.136719 L 30.902344 26.175781 C 30.902344 25.046875 30.023438 24.136719 28.917969 24.0625 L 28.917969 17.242188 C 28.917969 14.953125 26.726562 13.132812 24.039062 13.132812 Z M 23.589844 13.414062 L 24.039062 13.414062 C 26.601562 13.414062 28.636719 15.136719 28.636719 17.242188 L 28.636719 24.191406 C 28.636719 24.265625 28.699219 24.332031 28.777344 24.332031 C 29.800781 24.332031 30.621094 25.148438 30.621094 26.175781 L 30.621094 31.136719 C 30.621094 32.160156 29.800781 32.980469 28.777344 32.980469 L 18.851562 32.980469 C 17.828125 32.980469 17.007812 32.160156 17.007812 31.136719 L 17.007812 26.175781 C 17.007812 25.148438 17.828125 24.332031 18.851562 24.332031 C 18.929688 24.332031 18.992188 24.265625 18.992188 24.191406 L 18.992188 17.242188 C 18.992188 15.136719 21.03125 13.414062 23.589844 13.414062 Z M 22.824219 16.109375 C 22.195312 16.109375 21.691406 16.617188 21.691406 17.242188 L 21.691406 24.191406 C 21.691406 24.265625 21.753906 24.332031 21.832031 24.332031 L 25.800781 24.332031 C 25.875 24.332031 25.941406 24.265625 25.941406 24.191406 L 25.941406 17.242188 C 25.941406 16.617188 25.433594 16.109375 24.808594 16.109375 Z M 22.824219 16.390625 L 24.808594 16.390625 C 25.28125 16.390625 25.660156 16.769531 25.660156 17.242188 L 25.660156 24.050781 L 21.972656 24.050781 L 21.972656 17.242188 C 21.972656 16.769531 22.347656 16.390625 22.824219 16.390625 Z M 22.824219 16.390625 "/>
</g>
</svg>
